public/flags/PY.svg

<svg fill="none" height="53" viewBox="0 0 61 53" width="61" xmlns="http://www.w3.org/2000/svg" xmlns:xlink="http://www.w3.org/1999/xlink"><mask id="a" height="43" maskUnits="userSpaceOnUse" width="59" x="1" y="3"><rect fill="#fff" height="41.4393" rx="3.7125" stroke="#fff" stroke-width="1.06071" width="57.9393" x="1.53036" y="3.53036"/></mask><rect fill="#fff" height="41.4393" rx="3.7125" stroke="#f5f5f5" stroke-width="1.06071" width="57.9393" x="1.53036" y="3.53036"/><g mask="url(#a)"><path clip-rule="evenodd" d="m1 17.1667h59v-14.1667h-59z" fill="#e33f39" fill-rule="evenodd"/><path clip-rule="evenodd" d="m1 45.5h59v-14.1667h-59z" fill="#124bba" fill-rule="evenodd"/><path d="m30.4999 29.2072c2.7237 0 4.9215-2.225 4.9215-4.9571 0-2.7322-2.1978-4.9572-4.9215-4.9572-2.7236 0-4.9214 2.225-4.9214 4.9572 0 2.7321 2.1978 4.9571 4.9214 4.9571z" stroke="#398153" stroke-width="1.41429"/><path clip-rule="evenodd" d="m30.5 25.6667c.7758 0 1.4047-.6343 1.4047-1.4167s-.6289-1.4166-1.4047-1.4166c-.7759 0-1.4048.6342-1.4048 1.4166s.6289 1.4167 1.4048 1.4167z" fill="#e5cf58" fill-rule="evenodd"/></g></svg>

<svg width="61" height="53" viewBox="0 0 61 53" fill="none" xmlns="http://www.w3.org/2000/svg">
<rect x="1.53036" y="3.53036" width="57.9393" height="41.4393" rx="3.7125" fill="white" stroke="#F5F5F5" stroke-width="1.06071"/>
<mask id="mask0" mask-type="alpha" maskUnits="userSpaceOnUse" x="1" y="3" width="59" height="43">
<rect x="1.53036" y="3.53036" width="57.9393" height="41.4393" rx="3.7125" fill="white" stroke="white" stroke-width="1.06071"/>
</mask>
<g mask="url(#mask0)">
<path fill-rule="evenodd" clip-rule="evenodd" d="M1 17.1667H60V3H1V17.1667Z" fill="#E33F39"/>
<path fill-rule="evenodd" clip-rule="evenodd" d="M1 45.5H60V31.3333H1V45.5Z" fill="#124BBA"/>
<path d="M30.4999 29.2072C33.2236 29.2072 35.4214 26.9822 35.4214 24.2501C35.4214 21.5179 33.2236 19.2929 30.4999 19.2929C27.7763 19.2929 25.5785 21.5179 25.5785 24.2501C25.5785 26.9822 27.7763 29.2072 30.4999 29.2072Z" stroke="#398153" stroke-width="1.41429"/>
<path fill-rule="evenodd" clip-rule="evenodd" d="M30.5 25.6667C31.2758 25.6667 31.9047 25.0324 31.9047 24.25C31.9047 23.4676 31.2758 22.8334 30.5 22.8334C29.7241 22.8334 29.0952 23.4676 29.0952 24.25C29.0952 25.0324 29.7241 25.6667 30.5 25.6667Z" fill="#E5CF58"/>
</g>
</svg>
